src/view/frontend/web/svg/heroicons/solid/table.svg

<svg viewBox="0 0 20 20" fill="currentColor" xmlns="http://www.w3.org/2000/svg">
<path fill-rule="evenodd" clip-rule="evenodd" d="M5 4C3.34315 4 2 5.34315 2 7V13C2 14.6569 3.34315 16 5 16H15C16.6569 16 18 14.6569 18 13V7C18 5.34315 16.6569 4 15 4H5ZM4 13V12H9V14H5C4.44772 14 4 13.5523 4 13ZM11 14H15C15.5523 14 16 13.5523 16 13V12H11V14ZM11 10H16V8H11V10ZM9 8H4V10H9V8Z" />
</svg>

<svg xmlns="http://www.w3.org/2000/svg" fill="currentColor" viewBox="0 0 20 20"><path fill-rule="evenodd" d="M5 4a3 3 0 0 0-3 3v6a3 3 0 0 0 3 3h10a3 3 0 0 0 3-3V7a3 3 0 0 0-3-3H5Zm-1 9v-1h5v2H5a1 1 0 0 1-1-1Zm7 1h4a1 1 0 0 0 1-1v-1h-5v2Zm0-4h5V8h-5v2ZM9 8H4v2h5V8Z" clip-rule="evenodd"/></svg>
